X: 786
T: The Humors of Bandon.
C:J. O'Neill.
B:O'Neill's Music of Ireland
N:O'Neill's - 786
Z:Transcribed by Stephen Foy (shf@access.digex.net)
Z:abc 1.6
Z:1/4 note ornaments (~) are trills.
Z:1/8 note ornaments (~) are mordents.
Z:Dal Segno above first and last bar-lines, fermata above repeat sign.
M:6/8
R:Jig
K:Em
D|D>GG {A}GFG|~BAG FGA|{A}d G {A}GFG|Bcd =fef|\
~d2 e c2 d|{d}cAG FGA|{c}BAG (A<D)F|G3 G2:|
||B|d<gg ~gfg|(f<a)g f2 a|~g2 f d2 e|~=f2 d c2 e|\
~d2 c A2 B|~c2 A G2 B|~A2 G F2 A|{A}GFE F2 E|]


